!!!!SEGMENT: 051-1-Sm.krn
!!!COM: Chopin, Fryderyk
!!!OTL: 3.e Impromptu
!!!OPS:Op. 51
!!!PPR: M. Schlesinger
!!!PPP: Paris
!!!NIFC-rismID: 300605185
!!!NIFC-shelfmark: PL-Wbfc 2070/n
**kern	**kern	**fing	**dynam
*part1	*part1	*	*part1
*staff2	*staff1	*	*
*clefF4	*clefG2	*	*
*k[b-e-a-d-g-c-]	*k[b-e-a-d-g-c-]	*	*
*g-:	*g-:	*	*
*M12/8	*M12/8	*	*
=1	=1	=1	=1
!	!LO:TX:a:B:t=Vivace.	!	!
1.r	(>8D-<L	.	.
.	8E-<	.	.
.	8D-<J	.	.
.	8Cn<L	.	.
.	8D-<	.	.
.	8B-<J	.	.
.	8A-<L	.	<
.	8G-<	.	.
.	8F<J	.	.
.	8e-L	.	.
.	8d-	.	.
.	8cJ	.	.
=2	=2	=2	=2
1.rF	8c-XL	.	.
.	8d-	.	.
.	8c-J	.	[
.	8B-L	.	.
.	8c-	.	.
.	8b-J	.	.
.	8a-L	.	.
.	8g-	.	.
.	8fJ	.	.
.	8ee-L>	.	.
.	8dd-	.	.
.	8anJ	.	.
!!LO:LB:g=original
=3	=3	=3	=3
*	*ped	*	*
4GGG-	8b-L	.	.
.	8cc-	.	.
8r	8ccnJ	.	.
(>8g-L	8ee-L	.	.
*	*Xped	*	*
8B-	8dd-	.	.
*	*ped	*	*
8D-J	8bb-J	.	.
8G-L	8ccc-L	.	.
8g-	8bb-	.	.
8B-J	8ffJ	.	.
8g-L	8gg-L	.	.
8B-	8ee-	.	.
*	*Xped	*	*
8D-J	8gg-J	.	.
=4	=4	=4	=4
*	*ped	*	*
8A-L	8ffL	.	.
8f	8a-	.	.
8c-J	8cc-J	.	.
8fL	8dd-L	.	.
8c-	8ff	.	.
*	*Xped	*	*
8D-J	8ee-J	.	.
.	8qff/	.	.
*	*ped	*	*
8A-L	8ee-L	.	.
8f	8ee--	.	.
8c-J	8a-J	.	.
8fL	8b-L	.	.
8c-	8dd-	.	.
*	*Xped	*	*
8DnJ	8ccnJ	.	.
=5	=5	=5	=5
*	*ped	*	*
8E-L	8cc-XL<	.	.
8e-	8g-	.	.
8G-J	8a-J	.	.
*	*Xped	*	*
.	.	.	.
8e-L	8anL	.	.
8G-	8b-	.	.
8BB-J	8gg-J	.	.
8E-L	8ffL	.	.
8e-	8een	.	.
8G-J	8ee-XJ	.	.
8e-L	8ddnL	.	.
8G-	8ee-	.	.
8BB-J	8cc-J	.	.
!!LO:LB:g=original
=6	=6	=6	=6
.	8qdd-/	.	.
8FL	8cc-L<	.	.
8dn	8f	.	.
8A-J	8cc-J	.	.
8dL	8b-L	.	.
8A-	8dd-X	.	.
8BB-J	8ccnJ	.	.
8FL	8cc-XL<	.	.
8d	8f	.	.
8AnyJ	8anJ	.	.
8dL	8b-L	.	.
8A-y	8cc-	.	.
8BB-J	8a-yJ	.	.
=7	=7	=7	=7
*^	*^	*	*
8rcyy	8E-L	[>4.g-	8rA	.	.
[4B-	8B-	.	8e-L	.	.
.	8E-J	.	8d-J	.	.
8B-L]	4AA-	8g-L]	4.cn	.	.
8A-	.	8f	.	.	.
8E-J	8ryy	8g-J	.	.	.
8G-L	2.D-	8b-L	2.c-X	.	.
8F	.	8a-	.	.	.
8G-J	.	8e-J	.	.	.
8A-)	.	8d-L	.	.	.
.	.	8qf/	.	.	.
4rc	.	8e-	.	.	.
.	.	8d-J	.	.	.
*v	*v	*	*	*	*
*	*v	*v	*	*
!!LO:LB:g=original
=8	=8	=8	=8
.	8qB-/	.	.
*	*ped	*	*
8GG-L	[4.b-	.	.
(8d- 8B- 8G-	.	.	.
*	*Xped	*	*
8dnJ 8B- 8G-	.	.	.
4.e- 4.B- 4.G-)	8b-L<]	.	.
.	8an	.	.
.	8b-J	.	.
*	*ped	*	*
8FFL	8dd-L	.	.
8e- 8An 8F	8ccn	.	.
*	*Xped	*	*
8e-J 8B- 8F	8g-J	.	.
4.e- 4.cn 4.F	8fL<	.	.
.	8qa-y/	.	.
.	8g-	.	.
.	8fJ	.	.
=9	=9	=9	=9
*	*ped	*	*
8BB-L	[4.dd-)	.	.
(8f 8d- 8B-	.	.	.
*	*Xped	*	*
8g-J 8d- 8B-	.	.	.
4.gn 4.d- 4.B--)	8dd-L]	.	.
.	8ee-'>	.	.
.	8een'>J	.	.
4.a- 4.d- 4.A-	8ffL	.	.
.	8gg-'>	.	.
.	8aa-'>J	.	.
8b- 8en 8d- 8Gn	8bb-'>L	.	.
4r	8cccn'>	.	.
.	8ddd-'>J	.	.
!!LO:PB:g=original
=10	=10	=10	=10
*^	*	*	*
!LO:TX:b:t=P:mixed beam:problem	!	!	!	!
*	*	*ped	*	*
8AAA-/L	2.ryy	(>4.a-^>	.	.
8g-\ 8d-\ 8A-\	.	.	.	.
*	*	*Xped	*	*
8g-\J 8d-\ 8A-\	.	.	.	.
4.g- 4.cn [>4.A-	.	8gg-L	.	.
.	.	8ee-	.	.
.	.	8gg-J	.	.
*	*	*ped	*	*
2A-]	(>8D-L	8dd-L	.	.
.	8f 8c-X	8ee-	.	.
.	8D-J	8b-J	.	.
.	8f 8c-)	8cc-L	.	.
4rgyy	4rD	8dd-	.	.
*	*	*Xped	*	*
.	.	8a-J	.	.
*v	*v	*	*	*
=11	=11	=11	=11
(>8G-L	8b-L	.	.
8g-	8cc-	.	.
8B-J	8ccnJ 8an	.	.
8g-L	8ee-L 8cc-X	.	.
8B-	8dd- 8b-	.	.
8D-J	8bb-J 8dd-	.	.
8G-L	8ccc-L 8ee-	.	.
8g-	8bb- 8dd-	.	.
8B-J	8ffJ 8a-y	.	.
8g-L	8gg-L 8b-	.	.
8B-	8ee- 8g-	.	.
8D-J	8gg-J 8b-	.	.
!!LO:LB:g=original
=12	=12	=12	=12
*	*^	*	*
8A-L	4.ff	8cc-L	.	.
8a-	.	8f	.	.
8c-J	.	8cc-J	.	.
8a-L	8dd-L	8fL	.	.
8c-	8ff	8cc-	.	.
8D-J	8ee-J	8fJ	.	.
.	8qff/	.	.	.
8A-L	8ee-L	8cc-L	.	.
8a-	8ee--	8f	.	.
8c-J	8dd-J	8cc-J	.	.
8a-L	8ccnL	8fL	.	.
8c-	8dd-	8a-	.	.
8DnJ	[8cc-XJ	8fJ	.	.
=13	=13	=13	=13	=13
8E-L	4cc-]	8g-L	.	.
8d-	.	8B-	.	.
8G-J	8b-	8g-J	.	.
8e-L	8anL	8B-L	.	.
8G-	8b-	8g-	.	.
8BB-J	8gg-J	8b-J	.	.
8E-L	8ffL	8a-XL	.	.
8e-	8ff-X	8a--	.	.
8G-J	8ee-J	8g-J	.	.
8e-L	8ddnL	8fnL	.	.
8G-	8ee-	8g-	.	.
8BB-J	8cc-XJ	8e-J	.	.
!!LO:LB:g=original
=14	=14	=14	=14	=14
8FL	8cc-L	8dnL	.	.
8f	8b-	8a-	.	.
8A-J	8anJ	8dJ	.	.
8fL	8b-L	8a-XL	.	.
8A-	8dd-X	8d-X	.	.
8BB-J	8ccnJ	8a-J	.	.
8FL	8ccL	8dnyL	.	.
8f	8cc-X	8a-	.	.
8A-J	8b-J	8dJ	.	.
8fL	8anL	8a-XL	.	.
8A-	8b-	8d	.	.
8BB-J	8a-XJ	8fJ	.	.
=15	=15	=15	=15	=15
*^	*	*	*	*
8reyy	8E-L	4g-	8e-L	.	.
[4B-	8B-	.	8e--	.	.
.	8E-J	8ryy	8d-J	.	.
8B-L]	4.AA-	8g-L	4.cn	.	.
8A-	.	8f	.	.	.
8E-J	.	8g-J	.	.	.
8G-L	2.D-	8b-L	2.c-X	.	.
8F	.	8a-	.	.	.
8G-J	.	8e-XJ	.	.	.
8A-)	.	8d-L	.	.	.
.	.	8qf/	.	.	.
4rD	.	8e-	.	.	.
.	.	8d-J)	.	.	.
*v	*v	*	*	*	*
!!LO:LB:g=original
=16	=16	=16	=16	=16
*ped	*	*	*	*
(>8GG-L	[>4.b-	8B-L	.	.
8d- 8B- 8G-	.	8g-	.	.
*Xped	*	*	*	*
8dnJ 8B- 8G-	.	8fJ	.	.
!LO:TX:b:a:t=P:łuk do 4.e-:problem	!	!	!	!
4.B- 4.G-)	8b-L]	4.e-	.	.
.	8an	.	.	.
.	8b-J	.	.	.
*ped	*	*	*	*
(8FFL	8dd-L>	2.rcyy	.	.
8e- 8An 8F	8ccn	.	.	.
*Xped	*	*	*	*
8e-J 8B- 8F	8g-J	.	.	.
4.e- 4.cn 4.F)	8fL	.	.	.
.	8qa-/	.	.	.
.	8g-	.	.	.
.	[<8fJ	.	.	.
=17	=17	=17	=17	=17
*^	*	*	*	*
*ped	*	*	*	*	*
4.rgyy	(8BB-L	[4.dd-	8fL]	.	.
.	8f 8d- 8B-	.	8b-	.	.
*Xped	*	*	*	*	*
.	8fJ 8d- 8B-	.	8a-J	.	.
*clefG2	*clefG2	*	*	*	*
8f-XL	4d- 4B-	8dd-L]	4gn	.	<
8e-	.	8ee-	.	.	.
8d-J	8B--	8eenJ 8g	2.ryy	.	.
8d- 8A-)	8ryy	8ff^>L< 8a-	.	.	.
8rg	8r	8gg-X^> 8b-	.	.	.
2rgyy	8r	8aa-^>J 8ccn	.	.	.
.	4r	8bb-^>L< 8dd-	.	.	.
.	.	8cccny^> 8ee-y	.	.	.
.	8r	8ddd-^>J 8ff	8ryy	.	[[
*clefF4	*clefF4	*	*	*	*
!!LO:PB:g=original
=18	=18	=18	=18	=18	=18
*ped	*	*	*	*	*
2ryy	8AA-L< 8AAA-	4.a-^> 4.g-	2.rcyy	.	.
.	(>8cn 8E-	.	.	.	.
.	8A-J 8AA-	.	.	.	.
.	4c 4E-)	(8gg-L 8ee-	.	.	.
8ryy	.	8b- 8g-	.	.	.
8rcyy	8rD	8ffJ 8ccn	.	.	.
*Xped	*	*	*	*	*
.	.	.	.	.	.
(8A-L	[4.D-	[4.dd-	(>8fL	.	.
8B-	.	.	8g-	.	.
8G-J	.	.	8e-J	.	.
8A-)	8D-]	8dd-])	8fL	.	.
4reyy	4r	8raa	8d-J)	.	.
.	.	8ff-X	8rd	.	.
*	*	*v	*v	*	*
=19	=19	=19	=19	=19
*ped	*	*	*	*
4.rddyy	(>8DD-L<	([4.ff-X	.	.
.	8D-	.	.	.
.	8B--J	.	.	.
[<4.f-X	8f-L	8ff-L]	.	.
.	8b--J)	8ee-	.	.
.	8rD	8ee--J	.	.
2.rbyy	2.f-_	8dd-L	.	.
.	.	8dd--	.	.
.	.	8cc-J	.	.
*Xped	*	*	*	*
.	.	8b-L<	.	.
.	.	8b--	.	.
.	.	8a-J)	.	.
*v	*v	*	*	*
!!LO:LB:g=original
=20	=20	=20	=20
.	(>8qb-/	.	.
*ped	*	*	*
(8f-X]L 8D-	8a-L	.	.
8B-	8gn	.	.
*Xped	*	*	*
8f-J	8ff-XJ	.	.
8e-L	8ee-L	.	.
8c-	8g	.	.
8C-J)	8a-J	.	.
.	8qqg/L	.	.
.	8qqa-/	.	.
.	8qqb-/J	.	.
*ped	*	*	*
(8D-L	8a-L	.	.
8B-	8g	.	.
*Xped	*	*	*
8f-J	8ff-XJ	.	.
8e-L	8ee-L	.	.
8c-	8g	.	.
8C-J)	8a-J)	.	.
=21	=21	=21	=21
.	(>8qqdn/L	.	.
.	8qqgn/J	.	.
*ped	*	*	*
(8BBBnL<	4ddn	.	.
8BBn	.	.	.
8GnJ	[8ggn	.	.
8dnL	8ggL]	.	.
8gnJ)	8ff	.	.
8r	8eenJ	.	.
4r	8ddnL<	.	.
.	8d	.	.
*Xped	*	*	*
8r	8bnJ	.	.
4r	8anL<	.	.
.	8gny	.	.
8r	8f#XJ)	.	.
!!LO:LB:g=original
=22	=22	=22	=22
.	(>8qqg#X/	.	.
*ped	*	*	*
(8BBnL	8f#XL<	.	.
8G#X	8e#X	.	.
*Xped	*	*	*
8dnJ	8ddnJ	.	.
8c#XL	8cc#XL<	.	.
8An	8e#	.	.
8AAnJ)	8f#J	.	.
.	8qqe#/L	.	.
.	8qqf#/	.	.
.	8qqg-y/J	.	.
*ped	*	*	*
(8BBL	8f#L<	.	.
8G#	8e#	.	.
*Xped	*	*	*
8dJ	8ddnJ	.	.
8c#L	8cc#L<	.	.
8A	8e#	.	.
8AAJ)	8f#J)	.	.
=23	=23	=23	=23
*^	*^	*	*
*	*	*	*^	*	*
*ped	*	*	*	*	*	*
(<8AAAnL<	4.rDDDyy	([4.cc#X:	2.gn:	4.c#X:\	.	.
8AAn	.	.	.	.	.	>
8EnJ	.	.	.	.	.	.
*Xped	*	*	*	*	*	*
!LO:N:vis=2.	!	!	!	!	!	!
8AnL	2.An	8cc#L<]	.	8ryy	.	.
8dn	.	8bn	.	1ryy	.	.
8enJ	.	8cc#J	.	.	.	]
!LO:TX:b:t=P:mixed beam:problem	!	!	!	!	!	!
8dL/	.	8bL	4g	.	.	.
8c#X/	.	8an	.	.	.	.
8g->\J	.	8eenJ	4g	.	.	.
8f#X> 8dn>)	4.rGGyy	8ddnL	.	.	.	.
4rgyy	.	8a	4rd	.	.	.
.	.	8bJ)	.	.	.	.
!!LO:LB:g=original
=24	=24	=24	=24	=24	=24	=24
*ped	*	*	*	*	*	*
(<8AAAnL>	4.rDDDyy	([4.cc#X	[2.gn	4c#X\	.	.
8AAn	.	.	.	.	.	>
8EnJ	.	.	.	8ryy	.	.
*Xped	*	*	*	*	*	*
!LO:N:vis=2.	!	!	!	!	!	!
8AnL	2.An	8cc#L>]	.	8ryy	.	.
8dn	.	8bn	.	1ryy	.	.
8enJ	.	8cc#J	.	.	.	]
!LO:TX:b:t=P:mixed beam:problem	!	!	!	!	!	!
8dL/	.	8bL	4g]	.	.	.
8c#X/	.	8an	.	.	.	.
8gny>\J	.	8eenJ	4ryy	.	.	.
8f#X> 8dn>)	4.rGGyy	8ddnL	.	.	.	.
4rgyy	.	8a	8r	.	.	.
.	.	8bJ)	8r	.	.	.
=25	=25	=25	=25	=25	=25	=25
*ped	*	*	*	*	*	*
4ryy	(8AAnL	([4.cc#X^>	2.gn	4.c#X\	.	.
.	8En	.	.	.	.	.
!	!LO:N:vis=2	!	!	!	!	!
2An	8AnJ	.	.	.	.	.
*Xped	*	*	*	*	*	*
.	.	.	.	.	.	.
.	8en>L	8cc#L]	.	8ryy	.	.
.	8d#X>	8dd#X	.	1ryy	.	.
.	(8c#X>J)	8eenJ)	.	.	.	.
!	!LO:S:s=2:note:problem:note-level slur	!	!	!	!	!
4ryy	8a-> 8d-X>) 8A-X	8ffny'>L	8ffny 8fny	.	.	.
.	4r	8gg-X'>	4ryy	.	.	.
2ryy	.	8aa-'>J	.	.	.	.
.	8e 8d- 8G-	8bb-'>L	8bb- 8b-	.	.	.
.	4r	8cccn'>	4ryy	.	.	.
.	.	8ddd-'>J	.	.	.	.
*	*	*v	*v	*v	*	*
!!LO:PB:g=original
=26	=26	=26	=26	=26
*ped	*	*	*	*
!LO:TX:b:t=P:mixed beam:problem	!	!	!	!
8AAA-/L	2.ryy	(>4.a-^>	.	.
8g- 8d- 8A-\	.	.	.	.
8g-J 8d- 8A-\	.	.	.	.
*Xped	*	*	*	*
4.g- 4.cn [>4.A-	.	8gg-L	.	.
.	.	8ee-	.	.
.	.	8ffJ	.	.
*ped	*	*	*	*
2A-]	(>8D-L	8dd-L	.	.
.	8f 8c-X	8ee-	.	.
.	8D-J	8b-J	.	.
.	8f 8c-)	8cc-L	.	.
*Xped	*	*	*	*
8r	4rDyy	8dd-	.	.
8r	.	8a-J	.	.
*v	*v	*	*	*
=27	=27	=27	=27
*ped	*	*	*
(8GG-L	8b-L	.	.
8g-	8cc-	.	.
8B-J	8ccnJ 8an	.	.
8g-L	8ee-L 8cc-X	.	<
8B-	8dd- 8b-	.	.
*Xped	*	*	*
8d-J 8D-	8bb-J 8dd-	.	[
8G-L	8ccc-L 8ee-	.	.
8g-	8bb- 8dd-	.	.
8B-J	8ffJ 8a-X	.	.
8g-L	8gg-L 8b-	.	.
8B-	8ee- 8g-	.	.
8d-J 8D-)	8gg-J 8b-)	.	.
!!LO:LB:g=original
=28	=28	=28	=28
*	*^	*	*
(>8A-L	(4.ff	8cc-L	.	.
8a-	.	8f	.	.
8c-J	.	8cc-J	.	.
8a-L	8dd-L	8fL	.	.
8c-	8ff	8cc-	.	.
8d-J 8D-	8ee-J	8e-J	.	.
.	8qff/	.	.	.
8A-L	8ee-L	8cc-L	.	.
8a-	8ee--	8f	.	.
8c-J	8dd-J	8cc-J	.	.
8a-L	8ccnL	8fL	.	.
8c-	8dd-	8a-	.	.
8dnJ 8Dn	[8cc-XJ	8fJ	.	.
=29	=29	=29	=29	=29
8E-L	4cc-]	8g-L	.	.
8e-	.	8B-	.	.
8G-J	8b-	8g-J	.	.
8e-L	8anL	8B-L	.	.
8G-	8b-	8g-	.	.
.	.	8qqg-/	.	.
8B-J 8BB-	8gg-J	8b-J	.	.
8E-L	8ffL 8a-y	4.ryy	.	.
8e-	8ff-X 8a--	.	.	.
8G-J	8ee-J 8g-	.	.	.
8e-L	8ddnL< 8fn	4.ryy	.	.
8G-	8ee- 8g-	.	.	.
8B-J 8BB-	[8cc-J 8e-)	.	.	.
!!LO:LB:g=original
=30	=30	=30	=30	=30
8FL	(>8cc-L] 8dn	4.ryy	.	.
8f	8b- 8a-	.	.	.
8A-J	8anJ 8d	.	.	.
8fL	8b-L 8a-X	4.ryy	.	.
8A-	8dd-X 8dn	.	.	.
8B-J 8BB-	8ccnJ 8a-	.	.	.
8FL	8ccL 8d	4.ryy	.	.
8f	8cc-X 8a-	.	.	.
8A-J	8b-J 8d	.	.	.
8fL	8anL	8a-XL	.	.
8A-	8b-	8d	.	.
8B-J 8BB-	8a-J	8fJ	.	.
=31	=31	=31	=31	=31
*^	*	*	*	*
8reyy	8E-L	4.g-	8fL	.	.
4B-	8B-	.	8e-	.	.
.	8E-J	.	8d-J	.	.
8B-L	4.AA-	8g-L	4.cn	.	.
8A-	.	8f	.	.	.
8E-J	.	8g-J	.	.	.
8G-L	2.D-	8b-L	2.c-X	.	.
8F	.	8a-	.	.	.
8G-J	.	8e-J	.	.	.
8A-)	.	8d-L	.	.	.
.	.	8qf/	.	.	.
4rB	.	8e-	.	.	.
.	.	8d-J)	.	.	.
!!LO:LB:g=original
=32	=32	=32	=32	=32	=32
*ped	*	*	*	*	*
!LO:TX:b:t=P:mixed beam:problem	!	!	!	!	!
4.ryy	8GGG-L/	([4.b-	8re	.	.
.	8d- 8G-\	.	8f-XL	.	.
.	8d-J 8G-\	.	8f-J	.	.
4.ryy	4.d- 4.G-	8b-L]	4.f-	.	.
.	.	8a-	.	.	.
.	.	8b-J	.	.	.
*Xped	*	*	*	*	*
.	.	.	.	.	.
(8GnL	[4.C-	8dd-L 8f-	2.rAyy	.	.
8.A-	.	8.cc- 8.e-	.	.	.
16B-Jk	.	16b-Jk 16gn 16d-	.	.	.
8B-L	4C-]	8b-L 8g 8d-	.	.	.
8c-J)	.	8a-J 8e-)	.	.	.
8rC	8rB	(>8ee-/	.	.	.
*	*	*v	*v	*	*
=33	=33	=33	=33	=33
!	!LO:N:vis=2.	!	!	!
[<2.g-> [<2.e->	(>8g->L< 8e->	(>[>4.a-)	.	.
.	8dn	.	.	<
.	8d-XJ	.	.	.
.	8cnL<	4a-]	.	.
.	8c-X	.	.	.
.	8B-J	8b-/	.	.
4.g->] 4.e->]	8A-L<	8dd-L>	.	.
.	8E-	8.cc-	.	.
.	8C-J	.	.	.
.	.	16b-Jk	.	.
4.g->	4.e-\)	8b-L>	.	[
.	.	8a-)	.	.
.	.	(>8ee-J	.	.
!!LO:LB:g=original
=34	=34	=34	=34	=34
!	!LO:N:vis=2.	!	!	!
[<2.g-> [<2.e->	(>8g->L< 8e->	(>[>4.a-)	.	.
.	8dn	.	.	.
.	8d-XJ	.	.	.
.	8cnL<	4a-]	.	.
.	8c-X	.	.	.
.	8B-J	8b-/	.	.
4.g->] 4.e->]	8A-L<	8dd-L>	.	.
.	8E-	8.cc-	.	.
.	8C-J	.	.	.
.	.	16b-Jk	.	.
4.ryy	8e-\)	8b-L> 8g-	.	.
.	4r	8a-)	.	.
.	.	(>8gg-J	.	.
*v	*v	*	*	*
=35	=35	=35	=35
4.C- 4.CC-	4.a- 4.g- 4.e-	.	.
4.D- 4.DD-	4.b- 4.g- 4.d-	.	.
4.E- 4.EE-	4.cc- 4.g- 4.c-	.	.
4.F 4.FF	4.a- 4.d- 4.c-	.	.
=36	=36	=36	=36
*	*^	*	*
*	*	*^	*	*
4.G- 4.GG-	4.b- 4.d- 4.B-	2.rFyy	2.ryy	.	.
4.G-/ 4.C-/	4.e- 4.c-	.	.	.	.
2.D-/	4.g-	2.d-	4.B-\	.	.
.	4.f 4.A-)	.	8ryy	.	.
.	.	.	4ryy	.	.
!!LO:PB:g=original
=37	=37	=37	=37	=37	=37
*	*	*	*	*^	*
!	!	!LO:TX:a:t=P:2g- przed 4.a:problem	!	!	!	!
8G-L 8C-	([4.a-	2g-	N(>8e-\L	.	.	>
(8Dn	.	.	8dn\	.	1	.
8D-XJ	.	.	8d-X\J	.	1	.
8CnL<	4a-]	.	8cn\L	.	1	.
!	!	!	!LO:TX:a:t=P:nie wyświetla się fing pod 8c-:problem	!	!	!
8C-X	.	4ryy	8c-X\	.	1	.
8BB-J)	8b-	.	8B-\J	.	1	]
8A-L< 8AA-	8dd-L	&(4.g- 4.e-	2.rAyy	.	.	.
8E- 8EE-	8.cc-	.	.	.	.	.
8AA-J 8AAA-	.	.	.	.	.	.
.	16b-Jk	.	.	.	.	.
4.E-N)	8b-L	4.g- 4.e-	.	.	.	.
.	8a-J	.	.	.	.	.
.	(8ee-)	.	.	.	.	.
=38	=38	=38	=38	=38	=38	=38
!	!	!LO:TX:a:t=P:2g- przed 4.a:problem	!	!	!	!
8C-L<	[4.a-	2g-	N(>8e-\L&)	.	.	>
(8Dn	.	.	8dn\	.	1	.
8D-XJ	.	.	8d-X\J	.	1	.
8CnL<	4a-]	.	8cn\L	.	1	.
!	!	!	!LO:TX:a:t=P:nie wyświetla się fing pod 8c-:problem	!	!	!
8C-X	.	4ryy	8c-X\	.	1	.
8BB-J)	8b-	.	8B-\J	.	1	]
8A-L 8AA-	8dd-L	4.g- 4.e-	2.rAyy	.	.	.
8E- 8EE-	8.cc-	.	.	.	.	.
8AA-J 8AAA-	.	.	.	.	.	.
.	16b-Jk	.	.	.	.	.
4E-N)	8b-L	4.g- 4.e-	.	.	.	.
.	8a-J	.	.	.	.	.
!	!LO:TX:a:t=P:łuk do kreski taktowej:problem	!	!	!	!	!
8r	8ggg-\ 8gg-\)	.	.	.	.	.
*	*v	*v	*v	*	*	*
*	*	*v	*v	*
!!LO:LB:g=original
=39;	=39;	=39;	=39;
(<4.C- 4.CC-	(4.a- 4.g- 4.e-	.	.
4.D- 4.DD-	4.b- 4.g- 4.d-	.	.
4.E- 4.EE-	4.cc- 4.g- 4.c-	.	.
4.F 4.FF	4.a- 4.d- 4.c-	.	.
=40	=40	=40	=40
*	*^	*	*
4.G- 4.GG-	4.b- 4.d- 4.B-	2.ryy	.	.
4.G-/ 4.C-/	4.e- 4.c-	.	.	.
!	!	!LO:TX:a:t=P:2d- przed 4.g- 4B-:problem	!	!
!	!	!LO:N:vis=1	!	!
2.D-/)	4.g- 4.B-	2d-	.	.
.	4.f 4.A-)	.	.	.
.	.	4ryy	.	.
*	*v	*v	*	*
=41	=41	=41	=41
*ped	*	*	*
(8G-L	(4b-	.	.
8g-	.	.	.
8B-J	8cc-	.	.
4D-)	8dd-L	.	.
.	8ee-	.	.
*Xped	*	*	*
8r	8ffJ	.	.
*ped	*	*	*
(8E-L	8gg-'L	.	.
8g-	8aa-'	.	.
8cnJ 8A-	8bb-'J	.	.
4AA-)	8cccn'L	.	.
.	8ddd-	.	.
*Xped	*	*	*
8r	8eee-'J)	.	.
!!LO:LB:g=original
=42	=42	=42	=42
*^	*	*	*
*ped	*	*	*	*
!LO:TX:b:t=P:mixed beam:problem	!	!	!	!
8DD-L/	4.rDDDyy	2.a-^>	.	.
8g- 8d- 8A-\	.	.	.	.
8g-J 8d- 8A-\	.	.	.	.
!	!LO:TX:b:t=P:ligatura od 2A- do 4.A-:problem	!	!	!
4.g- 4.d-	(2A-	.	.	.
*Xped	*	*	*	*
.	.	.	.	.
*ped	*	*	*	*
8D-L<	.	(4.dd-	.	.
8f 8c-	4ryy	.	.	.
8D-J	.	.	.	.
4.f\ 4.c-\ 4.A-\)	4.rAAAyy	4ee-	.	.
*Xped	*	*	*	*
.	.	8dd-)	.	.
=43	=43	=43	=43	=43
*ped	*	*	*	*
4.G-/	(>8G-L<	(8b-L	.	.
.	8g-	8dd-	.	.
.	8B-J	8ee-J	.	.
*Xped	*	*	*	*
.	.	.	.	.
4.F	4.rcyy	8ffL	.	.
.	.	8gg-'	.	.
.	.	8aa-'J	.	.
*ped	*	*	*	*
4.E-/	8E-L<	8bb-'L	.	.
.	8g-	8cccn'	.	.
.	8cnJ 8A-	8ddd-'J	.	.
4AA-/)	4.rcyy	8eee-'L	.	.
.	.	8fff'	.	.
*Xped	*	*	*	*
8r	.	8ggg-'J)	.	.
!!LO:LB:g=original
=44	=44	=44	=44	=44
!LO:TX:b:t=P:mixed beam:problem	!	!	!	!
*ped	*	*	*	*
8DD-L/	4.rDDDyy	(>2.a-^>	.	.
8g- 8d- 8A-\	.	.	.	.
8g-J 8d- 8A-\	.	.	.	.
*Xped	*	*	*	*
!	!LO:TX: 2A- do 4.A-:problem	!	!	!
4.g- 4.d-	(2A-	.	.	.
.	.	.	.	.
*ped	*	*	*	*
8D-L<	.	4.dd-	.	.
8f 8c-	4ryy	.	.	.
8D-J	.	.	.	.
.	.	8qff	.	.
4.f\ 4.c-\ 4.A-\)	4.rAAAyy	4ee-	.	.
*Xped	*	*	*	*
.	.	8dd-	.	.
=45	=45	=45	=45	=45
4.G-	(>8G-L	8b-L	.	.
.	8g-	8dd-	.	.
.	8B-J	8ee-J	.	.
4.rbyy	4.d- 4.D-)	8ffL	.	.
.	.	8gg-	.	.
.	.	8aa-J	.	.
*ped	*	*	*	*
*	*	*8va	*	*
4.G-	(>8G-L	8bb-'L	.	.
.	8g-	8ddd-'	.	.
.	8B-J	8ggg-'J	.	.
4.rbyy	4.d- 4.D-)	8aaa-'L	.	.
.	.	8bbb-'	.	.
*Xped	*	*	*	*
.	.	8eeee-'J	.	.
*v	*v	*	*	*
!!LO:LB:g=original
=46	=46	=46	=46
4DDD-	4dddd-)	.	.
*	*X8va	*	*
8r	8r	.	.
!	!LO:TX:a:t=loco.	!	!
4.A- 4.D-	(>4.f 4.c-	.	.
4.G- 4.E-	4.g- 4.B-	.	.
4.A- 4.AA-	4.cc- 4.e- 4.c-	.	.
=47	=47	=47	=47
*	*^	*	*
!	!LO:TX:a:t=P:1.a- za 2.g- 2.e- 2.c-:problem	!	!	!
1.D-	1.a-	2.g- 2.e- 2.c-	.	>
.	.	4.f 4.d-	.	.
.	.	(4.e- [>4.c-	.	.
=48	=48	=48	=48	=48
(8GG-L	4.g-	4e- 4c-])	.	]
8FF	.	.	.	.
8GG-J	.	4d- 4B-)	.	.
8C-L	4r	.	.	.
8AAn	.	2ryy	.	.
8BB-J	8r	.	.	.
8E-L>	4r	.	.	.
8Cn	.	.	.	.
8D-J	8r	2ryy	.	.
8A-L>	4r	.	.	.
8F	.	.	.	.
8G-J)	8r	.	.	.
*	*v	*v	*	*
!!LO:PB:g=original
==49||	==49||	==49||	==49||
*M2/2	*M2/2	*	*
*met(c)	*met(c)	*	*
!	!LO:TX:a:B:t=Sostenuto.	!	!
!	!LO:TX:a:t=P:note-head-side tuplet number:problem	!	!
(>4e-	(<12r	.	.
.	12g-L	.	.
.	12ee-J 12b-)	.	.
4d-	(<12r	.	.
.	12e-L	.	.
.	12ee-J 12b- 12gn)	.	.
4c-	(<12r	.	.
.	12e-L	.	.
.	12ee-J 12a-)	.	.
8.B-L	(<12r	.	.
.	12e-L	.	.
.	[12cc-J 12a-)	.	.
16A-Jk	.	.	.
=50	=50	=50	=50
*	*Xtuplet	*	*
4B-	12cc-L]	.	.
.	(12dn	.	.
.	12b-J 12f)	.	.
4A-	12r	.	.
.	(12B-L	.	.
.	12b-J 12f 12d)	.	.
4G-	12r	.	.
.	(12B-L	.	.
.	12b-J 12e-)	.	.
8.FL	12r	.	.
.	(12B-L	.	.
.	12g-J 12e-)	.	.
16E-Jk	.	.	.
!!LO:LB:g=original
=51	=51	=51	=51
8FL)	12r	.	.
.	(>12B-L	.	.
8D-	.	.	.
.	[12fJ 12d-	.	.
8E-	12fL]	.	.
.	12B-	.	.
8FJ	.	.	.
.	[12fJ 12d-	.	.
8D-L<	12fL]	.	.
.	12B-	.	.
8BB-	.	.	.
.	[12fJ 12d-	.	.
8Cn	12fL]	.	.
.	12B-	.	.
8D-J	.	.	.
.	[12fJ 12d-	.	.
=52	=52	=52	=52
4FF	12fL]	.	.
.	12B-	.	.
.	[12fJ 12cn	.	.
8qAA-/	.	.	.
8.GG-L	12fL]	.	.
.	12An	.	.
.	12fJ 12e- 12c)	.	.
16FFJk	.	.	.
4BB-	12r	.	.
.	(12B-L	.	.
.	12fJ 12dn)	.	.
(>4B-	12r	.	.
.	(12dL	.	.
.	12ddnJ 12b- 12f)	.	.
=53	=53	=53	=53
4e-	12r	.	.
.	(>12g-L<	.	.
.	12ee-J 12b-	.	.
.	8qgg-/	.	.
4d-	12ff-XL	.	.
.	12gn	.	.
.	[12ee-J 12b-	.	.
4c-	12ee-L]	.	.
.	12e-	.	.
.	12ee-J 12a-)	.	.
8.B-L	12r	.	.
.	(12e-L<	.	.
.	[12cc-J 12a-	.	.
16A-Jk	.	.	.
!!LO:LB:g=original
=54	=54	=54	=54
4c-	12cc-L<]	.	.
.	12e-	.	.
.	12cc-J 12g-	.	.
.	8qee-/	.	.
4B--	12dd-L<	.	.
.	12e-	.	.
.	[12cc-J 12g-	.	.
8B--L	12cc-L]	.	.
.	12f-X	.	.
8A-	.	.	.
.	12ff-XJ 12cc-)	.	.
8G-	12r	.	.
.	(12c-L	.	.
8F-XJ	.	.	.
.	12a-J 12f-)	.	.
=55	=55	=55	=55
4A-	12r	.	.
.	(<12c-L	.	.
.	12cc-J 12f-X	.	.
4Dn	12b-L	.	.
.	12B-	.	.
.	12a-J 12fn)	.	.
4G-	12r	.	.
.	(<12B-L	.	.
.	12e-J	.	.
4AAn	12fnL	.	.
.	12G-	.	.
.	12g-J 12c-)	.	.
=56	=56	=56	=56
4BB-	12r	.	.
.	(12FL	.	.
.	12e-J 12B-)	.	.
8qD-/	.	.	.
8.C-L	12r	.	.
.	(12FL	.	.
.	12dnJ 12B- 12A-)	.	.
16BB-Jk)	.	.	.
8.EE-L	12r	.	.
.	(12G-L	.	.
.	12e-J 12B-)	.	.
!LO:TX:b:t=P:rozpoczęcie łuku przy 16BB- w dół:problem	!	!	!
(<16BB-K	.	.	.
8E-	12r	.	.
.	(12B-L	.	.
8FJ	.	.	.
.	12b-J 12e-)	.	.
!!LO:LB:g=original
=57	=57	=57	=57
*^	*	*	*
!LO:TX:b:t=P:od 4G- łuk w górę:problem	!	!	!	!
4G-\	2rBByy	12r	.	.
.	.	(<12B-L	.	.
.	.	12b-J 12d-)	.	.
4G-\	.	12r	.	.
.	.	(<12B-L	.	.
.	.	12b-J 12d-)	.	.
!LO:TX:a:t=P:note-head-side tuplet number:problem	!	!	!	!
20G-:LL	2AA-:	12r	.	.
20A-	.	.	.	.
.	.	(<12cnL	.	.
20G-	.	.	.	.
20F	.	.	.	.
.	.	12a-J 12e-)	.	.
20G-JJ	.	.	.	.
8.B-L	.	12r	.	.
.	.	(<12cL	.	.
.	.	12g-J 12e-)	.	.
16A-Jk	.	.	.	.
=58	=58	=58	=58	=58
4G-	4D-	12r	.	.
.	.	(12A-L	.	.
.	.	12a-J 12d-)	.	.
8.FL>	4rGGyy	12r	.	.
.	.	(12A-L	.	.
.	.	12a-J 12d-)	.	.
16E-Jk	.	.	.	.
8D-L	2rGGyy	12r	.	.
.	.	(12A-L	.	.
8Cn	.	.	.	.
.	.	12a-J 12f 12d-)	.	.
8C-X	.	12r	.	.
.	.	(12d-L	.	.
8BB-J	.	.	.	.
.	.	12b-J 12gn 12e-)	.	.
!!LO:LB:g=original
=59	=59	=59	=59	=59
*	*	*^	*	*
4AA-)	2rEEyy	12r	2.rAyy	.	.
.	.	(<12c-L	.	.	.
.	.	12cc-J 12a- 12e-)	.	.	.
(>4A-	.	12r	.	.	.
.	.	(<12c-L	.	.	.
.	.	12a-J 12e-)	.	.	.
20A-LL	2D-	12r	.	.	.
20B-	.	.	.	.	.
.	.	(<12d-L	.	.	.
20A-	.	.	.	.	.
20Gn	.	.	.	.	.
.	.	12a-J 12f-X)	.	.	.
20A-JJ	.	.	.	.	.
8.c-XL	.	12r	12reyy	.	.
.	.	(12f-L	[6f-	.	.
.	.	12ff-XJ 12a-	.	.	.
16B-Jk	.	.	.	.	.
=60	=60	=60	=60	=60	=60
4A-	2.E-	12fL	6f-]	.	.
.	.	12B-	.	.	.
.	.	12b-J 12e-)	12rAyy	.	.
8.GnL	.	12r	2.rFyy	.	.
.	.	(<12B-L	.	.	.
.	.	12b- 12e-J)	.	.	.
16FJk	.	.	.	.	.
4G	.	12r	.	.	.
.	.	(12B-L	.	.	.
.	.	12b-J 12e-)	.	.	.
*ped	*	*	*	*	*
4An: 4FF:	4rCCyy	12r	.	.	.
.	.	(12e-L	.	.	.
*Xped	*	*	*	*	*
.	.	12ccnJ 12f)	.	.	.
*v	*v	*	*	*	*
*	*v	*v	*	*
!!LO:PB:g=original
=61	=61	=61	=61
8qBB-/	.	.	.
4B-	12r	.	.
.	(<12d-L	.	.
.	12dd-J 12b- 12f)	.	.
4A-	12r	.	.
.	(<12dnL	.	.
.	12ddnJ 12b- 12f)	.	.
4G-	12r	.	.
.	(<12e-L	.	.
.	12ee-J 12b-)	.	.
8.FL	12r	.	.
.	(<12B-L	.	.
.	12b-J 12g- 12e-)	.	.
16E-Jk	.	.	.
=62	=62	=62	=62
4G-	12r	.	.
.	(>(<12B-L	.	.
.	12b-J)	.	.
4F-X	12a-L	.	.
.	12B-	.	.
.	12g-J 12d-)	.	.
8F-L	12r	.	.
.	(<12c-L	.	.
8E-	.	.	.
.	12cc-J 12g-)	.	.
8.D-	12r	.	.
.	(>(<12G-L	.	.
.	[12g-J 12e- 12c-)	.	.
16C-Jk	.	.	.
=63	=63	=63	=63
4E-	12g-L]	.	.
.	12G-	.	.
.	12g-J 12c-	.	.
*	*^	*	*
4AAn	12fL	6ryy	.	.
.	12G-	.	.	.
.	12e-J 12cn)	12rAyy	.	.
*	*v	*v	*	*
4D-/	12r	.	.
.	(<12FL	.	.
.	12B-J	.	.
4EEn)	12cnL	.	.
.	12G-	.	.
.	12d-J 12B-)	.	.
!!LO:LB:g=original
=64	=64	=64	=64
(<\4FF	12r<	.	.
.	(<12F<L	.	.
.	12d-<J 12B-<)	.	.
8qAA-/	.	.	.
8.GG-L<	12r<	.	.
.	(<12E-<L	.	.
.	12cn<J 12An<)	.	.
16FFJk	.	.	.
4BBB-\)	12r<	.	.
.	(<12Dn<L	.	.
.	12dn<J 12B-< 12F<)	.	.
(>4B-	12r	.	.
.	(<12dL	.	f
.	12ddnJ 12b- 12f)	.	.
=65	=65	=65	=65
4e-	12r	.	.
.	(<12g-L	.	.
.	12ee-J 12b-	.	.
.	8qgg-/	.	.
4d-	12ff-XL>	.	.
.	12gn	.	.
.	12ee-J 12b-)	.	.
4c-	12r	.	.
.	(<12e-L	.	.
.	12ee-J 12a-)	.	.
8.B-L	12r	.	.
.	(<12e-L	.	.
.	12cc-J 12a-)	.	.
16A-Jk	.	.	.
=66	=66	=66	=66
4B-	12r	.	.
.	(<12dnL	.	.
.	12b-J 12f	.	.
.	8qdd-X/	.	.
8BB-L	12cc-L	.	.
.	12dn	.	.
8A-J	.	.	.
.	12b-J 12f)	.	.
8A-L	12r	.	.
.	(<12B-L	.	.
8G-	.	.	.
.	12b-J 12e-	.	.
8F	12a-L	.	.
.	12B-	.	.
8E-J	.	.	.
.	12g-J)	.	.
!!LO:LB:g=original
=67	=67	=67	=67
8FL	12r	.	.
.	(>12B-L	.	.
8D-	.	.	.
.	[12fJ 12d-	.	.
8E-	12fL]	.	.
.	12B-	.	.
8FJ	.	.	.
.	[12fJ 12d-	.	.
8D-L<	12fL]	.	.
.	12B-	.	.
8BB-	.	.	.
.	[12fJ 12d-	.	.
8Cn	12fL]	.	.
.	12B-	.	.
8D-J	.	.	.
.	[12fJ 12d-	.	.
=68	=68	=68	=68
8FFL	12fL]	.	.
.	12B-	.	.
8GG-	.	.	.
.	[12fJ 12cn	.	.
8EEn	12fL]	.	.
.	12An	.	.
8FFJ	.	.	.
.	12fJ 12e- 12c)	.	.
4BB-)	12r	.	.
.	(<12B-L	.	.
.	12b-J 12f 12dn)	.	.
(>4B-	12r	.	.
.	(<12dL	.	.
.	12ddnJ 12b- 12f)	.	.
=69	=69	=69	=69
4e-	12r	.	ff
.	(>12g-L	.	.
.	12gg-J 12ee- 12b-)	.	.
4d-	12r	.	.
.	(>12gnL	.	.
.	12ggnJ 12ee- 12b-)	.	.
4c-	12r	.	.
.	(>12a-L	.	.
.	12aa-J 12ee- 12cc-)	.	.
8.B-L	12r	.	.
.	(>12e-L<	.	.
.	12ee-J 12cc- 12a-)	.	.
16A-Jk	.	.	.
!!LO:LB:g=original
=70	=70	=70	=70
*	*^	*	*
8c-L	12r	2.ryy	.	.
.	(>12e-L<	.	.	.
8cn	.	.	.	.
.	12ee-J 12cc-X) 12g-	.	.	.
8d-	12r	.	.	.
.	(>12e-L<	.	.	.
8B--J	.	.	.	.
.	12ee-J 12cc- 12g-)	.	.	.
8B--L	12r	.	.	.
.	(>12f-XL<	.	.	.
8A-	.	.	.	.
.	12ff-XJ 12cc-)	.	.	.
8G-	12r	12r	.	.
.	(<12c-L	6c-	.	.
8F-XJ	.	.	.	.
.	12cc-J 12a- 12f-)	.	.	.
*	*v	*v	*	*
=71	=71	=71	=71
4A-	12r	.	.
.	(<12c-L	.	.
.	12cc-J 12f-X	.	.
*	*^	*	*
!	!	!LO:TX:b:i:t=dimin._:problem:dynamics with extention lines	!	!
!	!	!	!	!LO:HP:i:t=dimin.
4Dn	12b-L	6ryy	.	>
.	12B-	.	.	.
.	12a-J 12fn)	12rAyy	.	.
*	*v	*v	*	*
4E-	12r	.	.
.	(<12B-L	.	.
.	12e-J	.	.
4AAn	12fL	.	.
.	12G-	.	.
.	8qa-/	.	.
.	12g-J 12c-)	.	]
=72	=72	=72	=72
4BB-)	12r	.	.
.	(<12FL	.	.
.	12e-J 12B-)	.	.
(4BB-^>	12r	.	.
.	(<12FL	.	.
.	12dnJ 12B-)	.	.
*Xtuplet	*	*	*
12AAnL	2r	.	.
12BB-	.	.	.
12C-J	.	.	.
12BB-L>	.	.	.
12G-	.	.	.
12FJ	.	.	.
!!LO:LB:g=original
=73	=73	=73	=73
4BB-)	12r	.	.
.	(12G-L	.	.
.	12fJ 12c-)	.	.
(<4BB-	12r	.	.
.	(12G-L	.	.
.	12e-J 12c-)	.	.
12AAnL	2r	.	.
12BB-	.	.	.
12C-J	.	.	.
12BB-L>	.	.	.
12A-	.	.	.
12G-J	.	.	.
=74	=74	=74	=74
4BB-)	12r	.	.
.	(<12A-L	.	.
.	12g-J 12c-)	.	.
(>4BB-^<	12r	.	.
.	(<12A-L	.	.
.	12f-XJ 12c-)	.	.
12c-L	2r	.	.
12B-	.	.	.
12A-J	.	.	.
12G-L	.	.	.
12F-X	.	.	]
12E-J	.	.	.
=75	=75	=75	=75
*	*^	*	*
!	!LO:TX:b:i:t=ritenuto.	!	!	!
12F-XL	(>12dnL	[4c- [4A-	.	.
12E-	12e-	.	.	.
12DnJ	12enJ	.	.	.
12D-XL	8fn)	8c-] 8A-]	.	.
12E--	.	.	.	.
.	8r	8rcyy	.	.
12D-J	.	.	.	.
12CnL<	2r	2reyy	.	.
12C-X	.	.	.	.
12BB-J	.	.	.	.
12C-L<	.	.	.	.
12EE-X	.	.	.	.
12FFJ)	.	.	.	.
*	*v	*v	*	*
!!LO:PB:g=original
==76||	==76||	==76||	==76||
*M12/8	*M12/8	*	*
*	*ped	*	*
4GG-'<	(>8b-L	.	.
.	8cc-	.	.
8r	8ccnJ	.	.
(>8g-L	8ee-L	.	.
8B-	8dd-	.	.
*	*Xped	*	*
8D-J	8bb-J	.	.
*	*ped	*	*
8G-L	8ccc-L	.	.
8g-	8bb-	.	.
8B-J	8ffJ	.	.
8g-L	8gg-L	.	.
8B-	8ee-	.	.
*	*Xped	*	*
8D-J	8gg-J	.	.
=77	=77	=77	=77
*	*ped	*	*
8A-L	8ffL	.	.
8f	8a-	.	.
8c-J	8cc-J	.	.
8fL	8dd-L	.	.
8c-	8ff	.	.
*	*Xped	*	*
8D-J	8ee-J	.	.
.	8qff/	.	.
*	*ped	*	*
8A-L	8ee-L	.	.
8f	8ee--	.	.
8c-J	8a-J	.	.
8fL	8b-L	.	.
8c-	8dd-	.	.
*	*Xped	*	*
8DnJ	8ccnJ	.	.
=78	=78	=78	=78
*	*ped	*	*
8E-L	8cc-XL<	.	.
8e-	8g-	.	.
8G-J	8a-J	.	.
*	*Xped	*	*
.	.	.	.
8e-L	8anL	.	.
8G-	8b-	.	.
8BB-J	8gg-J	.	.
8E-L	8ffL	.	.
8e-	8ff-X	.	.
8G-J	8ee-J	.	.
8e-L	8ddnL	.	.
8G-	8ee-	.	.
8BB-J	8cc-XJ	.	.
!!LO:LB:g=original
=79	=79	=79	=79
.	8qdd-/	.	.
8FL	8cc-L<	.	.
8dn	8f	.	.
8A-J	8a-J	.	.
8dL	8b-L	.	.
8A-	8dd-X	.	.
8BB-J	8ccnJ	.	.
8A-L	8cc-XL<	.	.
8d	8f	.	.
8A-XJ	8anJ	.	.
8dL	8b-L	.	.
8A-	8cc-	.	.
8BB-J	8a-XJ	.	.
=80	=80	=80	=80
*^	*^	*	*
8rcyy	8E-L	[4.g-	8rc	.	.
4B-	8B-	.	8e-L	.	.
.	8E-J	.	8d-J	.	.
8B-L	4.AA-	8g-L]	4.cn	.	.
8A-	.	8f	.	.	.
8E-J	.	8g-J	.	.	.
8G-L	2D-	8b-L	2.c-X	.	.
8F	.	8a-	.	.	.
8G-J	.	8e-J	.	.	.
8A-)	.	8d-L	.	.	.
.	.	8qf/	.	.	.
4re	4ryy	8e-	.	.	.
.	.	8d-J	.	.	.
*v	*v	*	*	*	*
*	*v	*v	*	*
=81	=81	=81	=81
.	8qB-/	.	.
*	*ped	*	*
(>8GG-L	[4.b-	.	.
8d- 8B- 8G-	.	.	.
*	*Xped	*	*
8dnJ 8B- 8G-	.	.	.
4.e- 4.B- 4.G-)	8b-L<]	.	.
.	8an	.	.
.	8b-J	.	.
*	*ped	*	*
(>8FFL	8dd-L	.	.
8e- 8An 8F	8ccn	.	.
*	*Xped	*	*
8e-J 8B- 8F	8g-J	.	.
4.e- 4.cn 4.F)	8fL<	.	.
.	8qa-X/	.	.
.	8g-	.	.
.	8fJ)	.	.
!!LO:LB:g=original
=82	=82	=82	=82
*	*^	*	*
*	*ped	*	*	*
(8BB-L	[4.dd-	4.ryy	.	.
8f 8d- 8B-	.	.	.	.
*	*Xped	*	*	*
8g-J 8d- 8B-	.	.	.	.
4.gn 4.d- 4.B--)	8dd-L]	4.ryy	.	.
.	8ee-	.	.	.
.	8eenJ	.	.	.
4.a-> 4.d- 4.A-	8ff'>L>	4.ryy	.	.
.	8gg-'>	.	.	.
.	8aa-'>J	.	.	.
8en 8d- 8Gn	8bb-'>L>	8b-	.	.
4r	8cccn'>	8r	.	.
.	8ddd-'>J	8r	.	.
*	*v	*v	*	*
=83	=83	=83	=83
*^	*	*	*
*ped	*	*	*	*
!LO:TX:b:t=P:mixed beam:problem	!	!	!	!
8AAA-L/	8ryy	(>4.a-^>	.	.
8g- 8d- 8A-\	8ryy	.	.	.
8g-J 8d- 8A-\	8ryy	.	.	.
!	!LO:TX:b:t=P:ligatura od 2A- do 4.A-:problem	!	!	!
4.g- 4.cn	(2.A-	8gg-L	.	.
*Xped	*	*	*	*
.	.	8ee-	.	.
.	.	8ffJ	.	.
(8D-L<	.	8dd-L	.	.
8f 8c-X	.	8ee-	.	.
8D-J	.	8b-J	.	.
8f\ 8c-\ 8A-\))	4.rAAAyy	8cc-L	.	.
8r	.	8dd-	.	.
8r	.	8a-J	.	.
*v	*v	*	*	*
=84	=84	=84	=84
*ped	*	*	*
(8GG-L	8b-L	.	.
8g-	8cc- 8a-	.	.
8B-J	8ccnJ 8an	.	.
8g-L	8ee-L 8cc-X	.	<
8B-	8dd- 8b-	.	.
*Xped	*	*	*
8d-J 8D-	8bb-J 8dd-	.	[
8G-L	8ccc-L 8ee-	.	.
8g-	8bb- 8dd-	.	.
8B-J	8ffJ 8a-X	.	.
8g-L	8gg-L 8b-	.	.
8B-	8ee- 8g-	.	.
8d-J 8D-	8gg-J 8b-	.	.
!!LO:LB:g=original
=85	=85	=85	=85
*	*^	*	*
8A-L	4.ff	8cc-L	.	.
8a-	.	8f	.	.
8c-J	.	8cc-J	.	.
8a-L	8dd-L	8fL	.	.
8c-	8ff	8cc-	.	.
8d-J 8D-	8ee-J	8fJ	.	.
.	8qff/	.	.	.
8A-L	8ee-L	8cc-L	.	.
8a-	8ee--	8f	.	.
8c-J	8dd-J	8cc-J	.	.
8a-L	8ccnL	8fL	.	.
8c-	8dd-	8a-	.	.
8dnJ 8Dn	8cc-XJ	8fJ	.	.
=86	=86	=86	=86	=86
8E-L	4cc-	8g-L	.	.
8e-	.	8B-	.	.
8G-J	8b-	8g-J	.	.
8e-L	8anL	8B-L	.	.
8G-	8b-	8g-	.	.
.	.	8qqg-/	.	.
8B-J 8BB-	8gg-J	8b-J	.	.
8E-L	8ff 8a-XL\	4.ryy	.	.
8e-	8ff-X 8a--	.	.	.
8G-J	8ee- 8g-J	.	.	.
8e-L	8ddn 8fL<	4.ryy	.	.
8G-	8ee- 8g-	.	.	.
8B-J 8BB-	[8cc- 8e-J	.	.	.
=87	=87	=87	=87	=87
8FL	8cc-L<] 8dn	4.ryy	.	.
8f	8b- 8a-	.	.	.
8A-J	8anJ 8d	.	.	.
8fL	8b-L< 8a-X	4.ryy	.	.
8A-	8dd-X 8dn	.	.	.
8B-J 8BB-	[8ccnJ 8a-	.	.	.
8FL	8ccL<] 8d	4.ryy	.	.
8f	8cc-X 8a-	.	.	.
8A-J	8b-J 8d	.	.	.
8fL	8anL	8a-XL	.	.
8A-	8b-	8d	.	.
8B-J 8BB-)	8a-J	[8fJ	.	.
!!LO:LB:g=original
=88	=88	=88	=88	=88
*^	*	*	*	*
8reyy	(>8E-L	[4.g-	8fL]	.	.
[4B-	8B-	.	8e-	.	.
.	8E-J	.	8d-J	.	.
8B-L]	4AA-	8g-L]	4.cn	.	.
8A-	.	8f	.	.	.
8E-J	8ryy	8g-J	.	.	.
8G-L	2D-	8b-L	2.c-X	.	.
8F	.	8a-	.	.	.
8G-J	.	8e-J	.	.	.
8A-)	.	8d-L	.	.	.
.	.	8qf/	.	.	.
4rB	4rEEyy	8e-	.	.	.
.	.	8d-J	.	.	.
=89	=89	=89	=89	=89	=89
*ped	*	*	*	*	*
!LO:TX:b:t=P:mixed beam:problem	!	!	!	!	!
8GGG-L/	2.reyy	4.b-	8rc	.	.
8d- 8G-\	.	.	8f-XL	.	.
8d-J 8G-\	.	.	8f-J	.	.
4.d- 4.G-	.	8b-L	4.f-	.	.
.	.	8a-	.	.	.
.	.	8b-J	.	.	.
(8GnL	[4.C-	8dd-L 8f-	2.rcyy	.	.
8.A-	.	8.cc- 8.e-	.	.	.
16B-Jk	.	16b-Jk 16gn 16d-	.	.	.
8B-L	4C-]	8b-L 8g 8d-	.	.	.
8c-J)	.	8a-J 8e-)	.	.	.
8reyy	8rD	(8ee-\	.	.	.
*	*	*v	*v	*	*
=90	=90	=90	=90	=90
!	!LO:N:vis=2.	!	!	!
[<2.g->\ [<2.e->\	8g->L< 8e->	[>4.a-	.	.
.	(>8dn	.	.	>
.	8d-XJ	.	.	.
.	8cnL<	4a-])	.	.
.	8c-X	.	.	.
.	8B-J	(>8b-/	.	]
4.g->\] 4.e->\]	8A-L<	8dd-L>	.	.
.	8E-	8.cc-	.	.
.	8C-J	.	.	.
.	.	16b-Jk	.	.
4.g->	4.e-)	8b-L>	.	.
.	.	8a-	.	.
.	.	8ee-J)	.	.
!!LO:PB:g=original
=91	=91	=91	=91	=91
!	!LO:N:vis=2.	!	!	!
[<2.g->\ [<2.e->\	8g->L< 8e->	(>[>4.a-	.	.
.	(>8dn	.	.	>
.	8d-XJ	.	.	.
.	8cnL<	4a-]	.	.
.	8c-X	.	.	.
.	8B-J	8b-/	.	]
4.g->\] 4.e->\]	8A-L<	8dd-L>	.	.
.	8E-	8.cc-	.	.
.	8C-J	.	.	.
.	.	16b-Jk	.	.
4.g->	4e-)	8b-L>	.	.
.	.	8a-)	.	.
.	8r	(>8gg-J	.	.
*v	*v	*	*	*
=92	=92	=92	=92
4.C- 4.CC-	4.a- 4.g- 4.e-	.	.
4.D- 4.DD-	4.b- 4.g- 4.d-	.	.
4.E- 4.EE-	4.cc- 4.g- 4.c-	.	.
4.F 4.FF	4.a- 4.d- 4.c-	.	.
=93	=93	=93	=93
*	*^	*	*
4.G- 4.GG-	4.b- 4.d- 4.B-	2.rFyy	.	.
4.G-/ 4.C-/	4.e- 4.c-	.	.	.
2.D-/	4.g- 4.B-	2.d-	.	.
.	4.f 4.A-)	.	.	.
!!LO:LB:g=original
=94	=94	=94	=94	=94
*	*	*^	*	*
*	*	*	*	*^	*
!	!	!LO:TX:a:t=P:2g- przed 4.a:problem	!	!	!	!
(8G-L 8C-	([4.a-	2g-	N(>8e-\L	.	.	>
8Dn	.	.	8dn\	.	1	.
8D-XJ	.	.	8d-X\J	.	1	.
8CnL<	4a-]	.	8cn\L	.	1	.
!	!	!	!LO:TX:a:t=P:nie wyświetla się fing pod 8c-:problem	!	!	!
8C-X	.	4ryy	8c-X\	.	1	.
8BB-J)	8b-	.	8B-\J	.	1	]
8A-L< 8AA-	8dd-L	4.g- 4.e-	2.rAyy	.	.	.
8E- 8EE-	8.cc-	.	.	.	.	.
8AA-J 8AAA-	.	.	.	.	.	.
.	16b-Jk	.	.	.	.	.
[4.E-N)	8b-L	4.g- 4.e-	.	.	.	.
.	8a-	.	.	.	.	.
.	(8ee-J)	.	.	.	.	.
=95	=95	=95	=95	=95	=95	=95
!	!	!LO:TX:a:t=P:2g- przed 4.a:problem	!	!	!	!
(8E-L<]	[4.a-	2g-	N(>8e-\L	.	.	>
8Dn	.	.	8dn\	.	1	.
8D-XJ	.	.	8d-X\J	.	1	.
!	!LO:TX:a:t=P:4a- bez caudy:problem	!	!	!	!	!
8CnL<	4a-]	.	8cn\L	.	1	.
!	!	!	!LO:TX:a:t=P:nie wyświetla się fing pod 8c-:problem	!	!	!
8C-X	.	4ryy	8c-X\	.	1	.
8BB-J)	8b-	.	8B-\J	.	1	]
8A-L< 8AA-	8dd-L	4.g- 4.e-	2.rAyy	.	.	.
8E- 8EE-	8.cc-	.	.	.	.	.
8AA-J 8AAA-	.	.	.	.	.	.
.	16b-Jk	.	.	.	.	.
4E-N)	8b-L	4g- 4e-	.	.	.	.
.	8a-J	.	.	.	.	.
8r	8ggg-\ 8gg-\	8ryy	.	.	.	.
*	*v	*v	*v	*	*	*
*	*	*v	*v	*
!!LO:LB:g=original
=96;	=96;	=96;	=96;
4.C- 4.CC-	4.a- 4.g- 4.e-	.	.
4.D- 4.DD-	4.b- 4.g- 4.d-	.	.
4.E- 4.EE-	4.cc- 4.g- 4.c-	.	.
4.F 4.FF	4.a- 4.d- 4.c-	.	.
=97	=97	=97	=97
*	*^	*	*
4.G- 4.GG-	4.b- 4.d- 4.B-	2.rFyy	.	.
4.G-/ 4.C-/	4.e- 4.c-	.	.	.
2.D-/	4.g- 4.B-	2.d-	.	.
.	4.f 4.A-)	.	.	.
*	*v	*v	*	*
=98	=98	=98	=98
*ped	*	*	*
(8G-L	(4b-	.	.
8g-	.	.	.
8B-J	8cc-	.	.
4D-)	8dd-L	.	.
.	8ee-	.	.
*Xped	*	*	*
8r	8ffJ	.	.
*ped	*	*	*
(8E-L	8gg-'L	.	.
8g-	8aa-'	.	.
8cnJ 8A-	8bb-'J	.	.
4AA-)	8cccny'L	.	.
.	8ddd-'	.	.
*Xped	*	*	*
8r	8eee-'J)	.	.
!!LO:LB:g=original
=99	=99	=99	=99
*^	*	*	*
*ped	*	*	*	*
8DD-L/	4.rDDDyy	2.a-^>	.	.
8g- 8d- 8A-\	.	.	.	.
8g-J 8d- 8A-\	.	.	.	.
!	!LO:TX:b:t=P:ligatura od 2A- do 4.A-:problem	!	!	!
4.g- 4.d-	(2A-	.	.	.
*Xped	*	*	*	*
.	.	.	.	.
*ped	*	*	*	*
8D-L<	.	(4.dd-	.	.
8a- 8c-	4ryy	.	.	.
8D-J	.	.	.	.
4.f\ 4.c-\ 4.A-\)	4.rAAAyy	4ee-	.	.
*Xped	*	*	*	*
.	.	8dd-)	.	.
=100	=100	=100	=100	=100
*ped	*	*	*	*
4.G-/	(>8G-L<	(8b-L	.	.
.	8g-	8dd-	.	.
.	8B-J	8ee-J	.	.
.	.	.	.	.
*Xped	*	*	*	*
4.F	4.rcyy	8ffL	.	.
.	.	8gg-	.	.
.	.	8aa-J	.	.
*ped	*	*	*	*
4.E-/	8E-L<	8bb-'L	.	.
.	8g-	8cccn'	.	.
.	8cnJ 8A-	8ddd-'J	.	.
4AA-/)	4.rcyy	8eee-'L	.	.
.	.	8fff'	.	.
*Xped	*	*	*	*
8r	.	8ggg-'J)	.	.
=101	=101	=101	=101	=101
*	*	*tuplet	*	*
*ped	*	*	*	*
8DD-L	4.rGGGGyy	(>2.a-^>	.	.
8g- 8d- 8A-	.	.	.	.
8g-J 8d- 8A-	.	.	.	.
!	!LO:TX:b:t=P:ligatura od 2.A- do 8A-:problem	!	!	!
4.g- 4.d-	(2.A-	.	.	.
*Xped	*	*	*	*
.	.	.	.	.
!	!	!LO:TX:a:t=P:note-head-side tuplet number:problem	!	!
*ped	*	*	*	*
(8D-L<	.	32%3ccnL	.	.
.	.	32%3dd-	.	.
8f 8c-	.	.	.	.
.	.	32%3cc	.	.
8D-J	.	.	.	.
.	.	32%3dd-J	.	.
.	.	8qff/	.	.
8f\ 8c-\ 8A-\))	4.rFFFyy	4ee-	.	.
8r	.	.	.	.
*Xped	*	*	*	*
8r	.	8dd-)	.	.
*v	*v	*	*	*
!!LO:LB:g=original
=102	=102	=102	=102
*ped	*	*	*
(8G-L	(8b-L	.	.
8g-	8dd-	.	.
8B-J	8ee-J	.	.
4.d- 4.D-)	8ffL	.	.
*Xped	*	*	*
.	8gg-	.	.
.	8aa-J	.	.
*ped	*	*	*
(8G-L	8bb-L)	.	.
*	*8va	*	*
8g-	(8ddd-'	.	pp
8B-J	8ggg-'J	.	.
4.d- 4.D-)	8aaa-'L	.	.
.	8bbb-'	.	.
*Xped	*	*	*
.	8eeee-'J	.	.
=103	=103	=103	=103
*ped	*	*	*
4DDD-	4dddd-)	.	.
*	*X8va	*	*
8r	8r	.	.
!	!LO:TX:a:t=loco	!	!
4.A- 4.D-	(>4.f 4.c-X	.	f<
*Xped	*	*	*
.	.	.	.
4.G- 4.E-	4.g- 4.B-	.	.
4.A- 4.AA-	4.cc- 4.e- 4.c-	.	[
=104	=104	=104	=104
*	*^	*	*
!	!LO:TX:a:t=P:1.a- za 2.g- 2.d- 2.A-:problem	!	!	!
*ped	*	*	*	*
2.D- 2.DD-	1.a-	2.g- 2.d- 2.A-	.	ff
*Xped	*	*	*	*
.	.	.	.	.
*ped	*	*	*	*
2.DD- 2.DDD-	.	2.f 2.d- 2.c-	.	.
*Xped	*	*	*	*
*	*v	*v	*	*
=105	=105	=105	=105
*ped	*	*	*
!	!LO:TX:a:t=P:arpeggio przy 1.g-:problem	!	!
1.B-: 1.G-: 1.D-: 1.GG-: 1.GGG-:	1.g-:;)	.	.
!	!LO:TX:a:B:t=Fin	!	!
==	==	==	==
*-	*-	*-	*-
!!!system-decoration: {(s1,s2)}
!!!RDF**kern: > = above
!!title: @{OTL}; @{OPS} @{ONM} publisher: @{PPR}
!!!RDF**kern: > = above
!!!RDF**kern: < = below
!!!RDF**kern: N = linked
!!!RDF**dynam: > = "dim."
!!!RDF**kern: i = editorial accidental
!!!ENC: Emilia Ziętek
!!!END: 2019-08-21
!!!EED: Mateusz Mrugas
!!!EST: revision finished 2019-08-28
!!!rism-genre: Impromptu
!!!rism-key: G-flat major
!!!rism-opus: op.  51
!!!rism-title: Impromptu in G-flat major op.  51
!!!rism-permalink: https://opac.rism.info/search?id=300605185&View=rism
